Costumes/penguin1_talk-a.svg

<?xml version="1.0" encoding="UTF-8" standalone="no"?>
<svg
   version="1.1"
   width="95.341133"
   height="123.49236"
   viewBox="-2 -2 95.341133 123.49236"
   id="svg16"
   sodipodi:docname="penguin1_talk-a.svg"
   xmlns:inkscape="http://www.inkscape.org/namespaces/inkscape"
   xmlns:sodipodi="http://sodipodi.sourceforge.net/DTD/sodipodi-0.dtd"
   xmlns="http://www.w3.org/2000/svg"
   xmlns:svg="http://www.w3.org/2000/svg">
  <defs
     id="defs20" />
  <sodipodi:namedview
     id="namedview18"
     pagecolor="#ffffff"
     bordercolor="#000000"
     borderopacity="0.25"
     inkscape:showpageshadow="2"
     inkscape:pageopacity="0.0"
     inkscape:pagecheckerboard="0"
     inkscape:deskcolor="#d1d1d1" />
  <!-- Exported by Scratch - http://scratch.mit.edu/ -->
  <g
     id="ID0.20486638182774186"
     transform="matrix(0.77184653,0,0,0.77184653,-1.1043453,-0.91555562)">
    <g
       id="Foot">
      <path
         id="ID0.978875685017556"
         fill="#f7941e"
         d="m 77.8,157.091 c -3.31,0 -7.674,-2.573 -7.858,-2.683 -0.035,-0.021 -0.07,-0.044 -0.104,-0.067 -1.531,-1.091 -7.551,-7.651 -8.612,-9.254 -0.281,-0.425 -0.328,-0.964 -0.123,-1.431 0.205,-0.467 0.633,-0.798 1.136,-0.879 3.879,-0.621 14.587,-2.541 17.511,-3.941 5.155,-2.465 9.247,-5.108 10.378,-5.86 0.246,-0.163 0.605,-0.298 0.901,-0.298 0.317,0 0.618,0.101 0.865,0.275 6.117,1.309 8.108,4.103 7.903,6.341 -0.155,1.705 -1.753,3.662 -5.652,4.106 0.538,0.657 0.971,1.391 1.235,2.184 0.478,1.428 0.61,3.629 -1.472,6 -1.066,1.212 -2.615,1.827 -4.603,1.827 -2.486,0 -5.306,-0.968 -7.668,-2.12 0.595,1.882 0.623,3.916 -1.45,5.188 -0.62,0.4 -1.432,0.612 -2.387,0.612 z" />
      <path
         id="ID0.6269367155618966"
         d="m 91.029,134.178 c 0.001,0 -0.047,0.033 -0.146,0.104 9.834,1.814 9.444,7.712 1.539,7.712 -1.143,0 -2.442,-0.123 -3.891,-0.399 2.993,0.621 8.122,4.591 4.25,9 -0.829,0.942 -2.062,1.317 -3.476,1.317 -3.893,0 -9.155,-2.842 -11.117,-4.512 0.793,1.992 3.94,6.129 1.215,7.8 -0.429,0.276 -0.981,0.392 -1.604,0.392 -2.361,0 -5.724,-1.658 -7.092,-2.472 -1.349,-0.961 -7.263,-7.397 -8.231,-8.86 0,0 14.16,-2.269 17.922,-4.07 6.087,-2.912 10.621,-6.012 10.631,-6.012 m 0,-3 c -0.907,0 -1.506,0.398 -1.731,0.549 -1.11,0.737 -5.128,3.333 -10.193,5.755 -2.457,1.177 -11.794,2.965 -17.103,3.815 -1.007,0.161 -1.863,0.822 -2.272,1.757 -0.41,0.934 -0.317,2.012 0.246,2.861 1.038,1.567 7.231,8.393 8.992,9.647 0.067,0.048 0.137,0.093 0.208,0.136 0.498,0.296 4.972,2.893 8.625,2.893 1.233,0 2.309,-0.286 3.199,-0.851 1.748,-1.082 2.405,-2.528 2.486,-4.024 1.934,0.713 3.966,1.195 5.821,1.195 3.036,0 4.791,-1.271 5.729,-2.336 1.992,-2.27 2.62,-4.921 1.769,-7.468 -0.076,-0.228 -0.164,-0.452 -0.261,-0.671 3.19,-0.986 4.576,-3.113 4.749,-5.006 0.261,-2.848 -1.954,-6.341 -8.831,-7.889 -0.431,-0.232 -0.92,-0.363 -1.433,-0.363 z" />
    </g>
    <g
       id="Body_1_">
      <g
         id="Purple">
        <path
           id="ID0.8103257887996733"
           fill="#8a8fc6"
           d="m 61.233,145.103 c -6.392,0 -13.258,-1.018 -19.897,-2.001 -1.026,-0.151 -2.049,-0.304 -3.069,-0.451 -2.438,-0.352 -4.435,-0.615 -6.285,-0.828 l -0.957,-0.11 c -0.358,-0.038 -1.337,-0.131 -1.337,-0.131 -0.406,-0.039 -0.809,-0.077 -1.209,-0.109 -0.408,-0.034 -0.811,-0.062 -1.213,-0.091 -0.434,-0.029 -0.868,-0.054 -1.299,-0.075 -0.371,-0.02 -0.735,-0.036 -1.097,-0.049 -0.478,-0.016 -0.949,-0.021 -1.42,-0.026 l -0.916,-0.007 c -0.684,0.006 -1.357,0.026 -2.02,0.062 l -0.161,0.006 c -0.696,0.04 -1.313,0.059 -1.917,0.059 -10.672,0 -17.943,-5.921 -18.095,-14.732 -0.021,-1.264 0.11,-2.57 0.391,-3.884 1.263,-5.894 4.102,-9.42 6.847,-12.83 1.018,-1.265 2.07,-2.571 3.047,-4.002 3.318,-5.375 5.053,-12.515 6.889,-20.073 2.122,-8.734 4.312,-17.75 9.268,-24.513 C 19.487,52.327 15.995,43.58 16.113,34.61 16.16,31.049 17.044,27.443 18.106,23.437 24.228,0.36 60.322,0.095 61.855,0.095 c 0.452,0 1.068,0.009 1.438,0.052 2.907,0.337 8.281,1.626 9.072,1.886 7.414,2.452 14.491,9.228 15.061,9.919 0.426,0.518 0.862,1.1 1.335,1.781 0.04,0.05 0.076,0.098 0.111,0.148 l 0.262,0.395 c 0.519,0.785 0.951,1.501 1.321,2.191 0.041,0.075 0.074,0.153 0.101,0.231 2.949,5.496 5.608,11.515 3.62,15.219 -1.864,3.475 -4.716,5.672 -7.231,7.61 -7.858,6.056 -14.646,11.286 17.236,57.645 5.456,7.934 6.075,15.916 1.841,23.724 -2.753,5.076 -7.561,9.994 -14.289,14.618 -12.842,8.824 -23.339,9.511 -26.251,9.511 -0.001,0 -0.001,0 -0.001,0 -0.434,0 -0.734,-0.015 -0.891,-0.024 -1.069,0.067 -2.197,0.102 -3.357,0.102 z" />
        <path
           id="ID0.9180831182748079"
           d="m 61.855,1.595 c 0.624,0 1.059,0.018 1.266,0.042 2.869,0.333 8.117,1.604 8.775,1.821 7.124,2.355 13.979,8.971 14.372,9.448 0.44,0.536 0.857,1.102 1.261,1.683 0.035,0.051 0.075,0.096 0.11,0.146 0.083,0.121 0.163,0.245 0.244,0.368 0.439,0.665 0.862,1.35 1.251,2.074 0,0 -0.015,-0.01 -0.037,-0.024 1.597,2.958 5.677,10.479 3.758,14.055 -7.514,14.003 -32.25,5.25 10.09,66.814 11.687,16.993 -2.977,30.013 -12.062,36.256 -12.438,8.546 -22.452,9.247 -25.402,9.247 -0.578,0 -0.886,-0.027 -0.886,-0.027 -1.104,0.071 -2.225,0.104 -3.362,0.104 -7.252,0 -15.124,-1.332 -22.751,-2.437 -2.136,-0.309 -4.25,-0.595 -6.329,-0.834 -0.323,-0.037 -0.648,-0.077 -0.97,-0.111 -0.454,-0.049 -0.903,-0.09 -1.353,-0.133 -0.412,-0.04 -0.822,-0.078 -1.23,-0.111 -0.413,-0.034 -0.822,-0.063 -1.23,-0.092 -0.446,-0.03 -0.889,-0.056 -1.33,-0.077 -0.375,-0.02 -0.749,-0.037 -1.119,-0.05 -0.49,-0.017 -0.974,-0.022 -1.456,-0.027 -0.261,-0.003 -0.525,-0.008 -0.785,-0.008 -0.054,0 -0.107,0.001 -0.16,0.001 -0.706,0.006 -1.401,0.027 -2.087,0.064 -0.077,0.005 -0.157,0.004 -0.234,0.009 -0.601,0.036 -1.188,0.054 -1.763,0.054 -10.316,0 -16.465,-5.68 -16.595,-13.258 -0.02,-1.143 0.098,-2.328 0.358,-3.544 1.641,-7.655 6,-10.934 9.666,-16.301 7.668,-12.413 7.168,-33.389 16.834,-45.467 0,0 0,-10e-4 -0.001,-10e-4 C 22.365,53.73 17.478,44.926 17.613,34.626 17.658,31.193 18.533,27.675 19.556,23.818 24.874,3.772 54.968,1.595 61.855,1.595 m 0,-3 c -1.58,0 -38.785,0.277 -45.199,24.456 -1.088,4.104 -1.993,7.805 -2.042,11.537 -0.119,9.038 3.253,17.82 10.295,26.785 -4.664,6.868 -6.789,15.617 -8.851,24.102 -1.801,7.412 -3.502,14.415 -6.709,19.639 -0.933,1.36 -1.952,2.626 -2.938,3.851 -2.855,3.547 -5.807,7.214 -7.145,13.456 -0.305,1.425 -0.447,2.846 -0.424,4.224 0.166,9.694 8.041,16.207 19.594,16.207 0.636,0 1.289,-0.02 1.942,-0.059 0.09,-0.002 0.168,-0.005 0.245,-0.01 0.609,-0.033 1.265,-0.053 1.922,-0.059 l 0.135,-10e-4 c 0.158,0 0.318,0.002 0.477,0.005 l 0.28,0.003 c 0.457,0.005 0.916,0.01 1.382,0.025 0.351,0.013 0.708,0.029 1.064,0.048 0.432,0.021 0.856,0.045 1.283,0.074 0.39,0.027 0.787,0.056 1.186,0.088 0.396,0.033 0.791,0.069 1.187,0.108 l 0.277,0.026 c 0.348,0.032 0.695,0.065 1.045,0.103 0.207,0.022 0.411,0.047 0.616,0.07 l 0.333,0.039 c 1.835,0.211 3.819,0.473 6.242,0.822 1.017,0.147 2.04,0.299 3.064,0.451 6.693,0.991 13.614,2.017 20.117,2.017 1.158,0 2.288,-0.033 3.361,-0.099 0.196,0.011 0.495,0.021 0.887,0.021 3.021,0 13.902,-0.705 27.102,-9.774 6.926,-4.76 11.892,-9.854 14.758,-15.139 4.462,-8.227 3.797,-16.972 -1.924,-25.29 C 90.925,75.25 83.271,60.873 82.018,52.371 c -0.946,-6.422 1.755,-8.504 5.844,-11.655 2.635,-2.03 5.621,-4.331 7.638,-8.089 2.313,-4.312 -0.467,-10.752 -3.57,-16.544 -0.044,-0.11 -0.094,-0.219 -0.151,-0.325 -0.392,-0.73 -0.847,-1.485 -1.391,-2.308 L 90.324,13.352 C 90.256,13.248 90.186,13.143 90.116,13.04 90.062,12.962 90.012,12.896 89.963,12.832 89.479,12.135 89.028,11.537 88.588,11.001 87.891,10.154 80.639,3.189 72.84,0.61 71.99,0.33 66.525,-0.988 63.469,-1.343 63.113,-1.384 62.571,-1.405 61.855,-1.405 Z" />
      </g>
      <path
         id="White"
         fill="#ffffff"
         d="m 64.596,143.498 c 0,0 11.411,1.003 26.288,-9.22 9.085,-6.243 23.748,-19.263 12.062,-36.256 C 60.606,36.458 85.342,45.21 92.856,31.208 94.775,27.632 90.695,20.11 89.098,17.153 c 0.022,0.014 0.037,0.024 0.037,0.024 C 88.746,16.453 88.323,15.768 87.884,15.103 87.803,14.98 87.723,14.856 87.64,14.735 87.605,14.684 87.565,14.639 87.53,14.589 75.676,9.891 57.52,11.492 50.036,29.347 c -6.405,15.274 24.195,40.277 5.07,49.945 -7.369,3.725 -22.738,15.03 -22.738,26.784 0,11.754 7,25.246 6.334,33.246 -0.057,0.676 -0.133,1.276 -0.219,1.844 8.823,1.277 17.971,2.859 26.113,2.332 z" />
    </g>
    <g
       id="Beak">
      <path
         id="ID0.37231157114729285"
         fill="#f7941e"
         d="M 89.842,64.605 C 83.418,64.604 75.406,60.092 71.208,54.109 c -2.523,-3.596 -3.297,-7.28 -2.179,-10.372 2.925,-8.097 12.248,-17.51 19.885,-17.51 0.538,0 1.065,0.048 1.567,0.144 5.787,0.995 8.878,2.834 11.605,4.458 1.627,0.969 3.164,1.884 5.198,2.602 2.326,0.822 4.316,1.165 6.072,1.468 3.455,0.595 6.439,1.109 7.312,5.309 0.511,2.447 -0.002,5.052 -1.408,7.146 -1.205,1.795 -3.694,4.128 -8.705,5.051 -1.221,0.225 -2.635,0.339 -4.2,0.339 -5.331,0 -12.011,-1.34 -16.979,-2.889 3.677,5.943 10.8,7.615 11.146,7.693 0.206,0.046 0.408,0.138 0.577,0.265 0.632,0.473 0.788,1.355 0.358,2.017 -1.588,2.446 -4.653,3.974 -9.112,4.541 -0.796,0.157 -1.638,0.236 -2.503,0.236 0.002,-0.002 0.001,-0.002 0,-0.002 z" />
      <path
         id="ID0.5737760849297047"
         d="m 88.914,27.727 c 0.44,0 0.871,0.038 1.287,0.117 8.904,1.531 10.834,4.969 16.584,7 7.119,2.515 11.402,0.792 12.416,5.667 0.738,3.536 -0.881,8.937 -8.916,10.417 -1.18,0.217 -2.509,0.314 -3.929,0.314 -6.604,0 -15.183,-2.101 -19.821,-3.981 3.082,9.5 13.662,11.747 13.666,11.75 -1.291,1.988 -3.95,3.357 -8.096,3.876 -0.729,0.147 -1.486,0.217 -2.263,0.217 -9.687,0 -22.272,-10.924 -19.403,-18.857 2.902,-8.032 11.904,-16.52 18.475,-16.52 m 0,-3 c -8.364,0 -18.142,9.768 -21.296,18.501 -1.289,3.564 -0.45,7.735 2.363,11.744 4.526,6.451 12.88,11.133 19.861,11.133 0.945,0 1.867,-0.085 2.743,-0.254 4.89,-0.632 8.298,-2.383 10.131,-5.206 0.86,-1.324 0.547,-3.088 -0.717,-4.035 -0.339,-0.253 -0.734,-0.435 -1.147,-0.527 -0.232,-0.053 -3.808,-0.89 -7.016,-3.462 4.111,0.955 8.615,1.622 12.52,1.622 1.656,0 3.161,-0.123 4.473,-0.364 5.523,-1.018 8.312,-3.656 9.678,-5.69 1.63,-2.427 2.225,-5.449 1.631,-8.291 -1.08,-5.196 -5.036,-5.878 -8.526,-6.479 -1.696,-0.292 -3.62,-0.624 -5.827,-1.403 -1.894,-0.669 -3.301,-1.506 -4.931,-2.476 -2.835,-1.688 -6.049,-3.601 -12.121,-4.648 -0.586,-0.11 -1.198,-0.165 -1.819,-0.165 z" />
    </g>
    <path
       id="Eye"
       d="m 70.439,23.604 c 1.046,0 1.994,0.545 2.68,1.426 0.686,0.88 1.111,2.096 1.111,3.438 0,1.342 -0.425,2.558 -1.111,3.438 -0.686,0.881 -1.634,1.426 -2.68,1.426 -1.046,0 -1.994,-0.545 -2.68,-1.426 -0.686,-0.88 -1.111,-2.096 -1.111,-3.438 0,-1.342 0.425,-2.558 1.111,-3.438 0.686,-0.881 1.634,-1.426 2.68,-1.426 z" />
    <path
       id="Wing"
       fill="#8a8fc6"
       stroke="#000000"
       stroke-width="3"
       stroke-linecap="round"
       stroke-linejoin="round"
       d="m 50.072,79.952 c 0,0 -6.982,18.463 0,32.841 6.982,14.378 15.396,22.833 22.896,8.333 9.639,-18.634 -4.145,-43.167 -15.003,-57.214" />
  </g>
</svg>

<svg version="1.1" width="123" height="159" viewBox="-2 -2 123 159" xmlns="http://www.w3.org/2000/svg" xmlns:xlink="http://www.w3.org/1999/xlink">
  <!-- Exported by Scratch - http://scratch.mit.edu/ -->
  <g id="ID0.20486638182774186" transform="matrix(0.7718465328216553, 0, 0, 0.7718465328216553, 1.55, 1.8)">
    <g id="Foot">
      <path id="ID0.978875685017556" fill="#F7941E" d="M 77.800 157.091 C 74.490 157.091 70.126 154.518 69.942 154.408 C 69.907 154.387 69.872 154.364 69.838 154.341 C 68.307 153.250 62.287 146.690 61.226 145.087 C 60.945 144.662 60.898 144.123 61.103 143.656 C 61.308 143.189 61.736 142.858 62.239 142.777 C 66.118 142.156 76.826 140.236 79.750 138.836 C 84.905 136.371 88.997 133.728 90.128 132.976 C 90.374 132.813 90.733 132.678 91.029 132.678 C 91.346 132.678 91.647 132.779 91.894 132.953 C 98.011 134.262 100.002 137.056 99.797 139.294 C 99.642 140.999 98.044 142.956 94.145 143.400 C 94.683 144.057 95.116 144.791 95.380 145.584 C 95.858 147.012 95.990 149.213 93.908 151.584 C 92.842 152.796 91.293 153.411 89.305 153.411 C 86.819 153.411 83.999 152.443 81.637 151.291 C 82.232 153.173 82.260 155.207 80.187 156.479 C 79.567 156.879 78.755 157.091 77.800 157.091 L 77.800 157.091 Z "/>
      <path id="ID0.6269367155618966" d="M 91.029 134.178 C 91.030 134.178 90.982 134.211 90.883 134.282 C 100.717 136.096 100.327 141.994 92.422 141.994 C 91.279 141.994 89.980 141.871 88.531 141.595 C 91.524 142.216 96.653 146.186 92.781 150.595 C 91.952 151.537 90.719 151.912 89.305 151.912 C 85.412 151.912 80.150 149.070 78.188 147.400 C 78.981 149.392 82.128 153.529 79.403 155.200 C 78.974 155.476 78.422 155.592 77.799 155.592 C 75.438 155.592 72.075 153.934 70.707 153.120 C 69.358 152.159 63.444 145.723 62.476 144.260 C 62.476 144.260 76.636 141.991 80.398 140.190 C 86.485 137.278 91.019 134.178 91.029 134.178 M 91.029 131.178 C 90.122 131.178 89.523 131.576 89.298 131.727 C 88.188 132.464 84.170 135.060 79.105 137.482 C 76.648 138.659 67.311 140.447 62.002 141.297 C 60.995 141.458 60.139 142.119 59.730 143.054 C 59.320 143.988 59.413 145.066 59.976 145.915 C 61.014 147.482 67.207 154.308 68.968 155.562 C 69.035 155.610 69.105 155.655 69.176 155.698 C 69.674 155.994 74.148 158.591 77.801 158.591 C 79.034 158.591 80.110 158.305 81 157.740 C 82.748 156.658 83.405 155.212 83.486 153.716 C 85.420 154.429 87.452 154.911 89.307 154.911 C 92.343 154.911 94.098 153.640 95.036 152.575 C 97.028 150.305 97.656 147.654 96.805 145.107 C 96.729 144.879 96.641 144.655 96.544 144.436 C 99.734 143.450 101.120 141.323 101.293 139.430 C 101.554 136.582 99.339 133.089 92.462 131.541 C 92.031 131.309 91.542 131.178 91.029 131.178 L 91.029 131.178 Z "/>
    </g>
    <g id="Body_1_">
      <g id="Purple">
        <path id="ID0.8103257887996733" fill="#8A8FC6" d="M 61.233 145.103 C 54.841 145.103 47.975 144.085 41.336 143.102 C 40.310 142.951 39.287 142.798 38.267 142.651 C 35.829 142.299 33.832 142.036 31.982 141.823 L 31.025 141.713 C 30.667 141.675 29.688 141.582 29.688 141.582 C 29.282 141.543 28.879 141.505 28.479 141.473 C 28.071 141.439 27.668 141.411 27.266 141.382 C 26.832 141.353 26.398 141.328 25.967 141.307 C 25.596 141.287 25.232 141.271 24.870 141.258 C 24.392 141.242 23.921 141.237 23.450 141.232 L 22.534 141.225 C 21.850 141.231 21.177 141.251 20.514 141.287 L 20.353 141.293 C 19.657 141.333 19.040 141.352 18.436 141.352 C 7.764 141.352 0.493 135.431 0.341 126.620 C 0.320 125.356 0.451 124.050 0.732 122.736 C 1.995 116.842 4.834 113.316 7.579 109.906 C 8.597 108.641 9.649 107.335 10.626 105.904 C 13.944 100.529 15.679 93.389 17.515 85.831 C 19.637 77.097 21.827 68.081 26.783 61.318 C 19.487 52.327 15.995 43.580 16.113 34.610 C 16.160 31.049 17.044 27.443 18.106 23.437 C 24.228 0.360 60.322 0.095 61.855 0.095 C 62.307 0.095 62.923 0.104 63.293 0.147 C 66.200 0.484 71.574 1.773 72.365 2.033 C 79.779 4.485 86.856 11.261 87.426 11.952 C 87.852 12.470 88.288 13.052 88.761 13.733 C 88.801 13.783 88.837 13.831 88.872 13.881 L 89.134 14.276 C 89.653 15.061 90.085 15.777 90.455 16.467 C 90.496 16.542 90.529 16.620 90.556 16.698 C 93.505 22.194 96.164 28.213 94.176 31.917 C 92.312 35.392 89.460 37.589 86.945 39.527 C 79.087 45.583 72.299 50.813 104.181 97.172 C 109.637 105.106 110.256 113.088 106.022 120.896 C 103.269 125.972 98.461 130.890 91.733 135.514 C 78.891 144.338 68.394 145.025 65.482 145.025 C 65.481 145.025 65.481 145.025 65.481 145.025 C 65.047 145.025 64.747 145.010 64.590 145.001 C 63.521 145.068 62.393 145.103 61.233 145.103 L 61.233 145.103 Z "/>
        <path id="ID0.9180831182748079" d="M 61.855 1.595 C 62.479 1.595 62.914 1.613 63.121 1.637 C 65.990 1.970 71.238 3.241 71.896 3.458 C 79.020 5.813 85.875 12.429 86.268 12.906 C 86.708 13.442 87.125 14.008 87.529 14.589 C 87.564 14.640 87.604 14.685 87.639 14.735 C 87.722 14.856 87.802 14.980 87.883 15.103 C 88.322 15.768 88.745 16.453 89.134 17.177 C 89.134 17.177 89.119 17.167 89.097 17.153 C 90.694 20.111 94.774 27.632 92.855 31.208 C 85.341 45.211 60.605 36.458 102.945 98.022 C 114.632 115.015 99.968 128.035 90.883 134.278 C 78.445 142.824 68.431 143.525 65.481 143.525 C 64.903 143.525 64.595 143.498 64.595 143.498 C 63.491 143.569 62.370 143.602 61.233 143.602 C 53.981 143.602 46.109 142.270 38.482 141.165 C 36.346 140.856 34.232 140.570 32.153 140.331 C 31.830 140.294 31.505 140.254 31.183 140.220 C 30.729 140.171 30.280 140.130 29.830 140.087 C 29.418 140.047 29.008 140.009 28.600 139.976 C 28.187 139.942 27.778 139.913 27.370 139.884 C 26.924 139.854 26.481 139.828 26.040 139.807 C 25.665 139.787 25.291 139.770 24.921 139.757 C 24.431 139.740 23.947 139.735 23.465 139.730 C 23.204 139.727 22.940 139.722 22.680 139.722 C 22.626 139.722 22.573 139.723 22.520 139.723 C 21.814 139.729 21.119 139.750 20.433 139.787 C 20.356 139.792 20.276 139.791 20.199 139.796 C 19.598 139.832 19.011 139.850 18.436 139.850 C 8.120 139.850 1.971 134.170 1.841 126.592 C 1.821 125.449 1.939 124.264 2.199 123.048 C 3.840 115.393 8.199 112.114 11.865 106.747 C 19.533 94.334 19.033 73.358 28.699 61.280 C 28.699 61.280 28.699 61.279 28.698 61.279 C 22.365 53.730 17.478 44.926 17.613 34.626 C 17.658 31.193 18.533 27.675 19.556 23.818 C 24.874 3.772 54.968 1.595 61.855 1.595 M 61.855 -1.405 C 60.275 -1.405 23.070 -1.128 16.656 23.051 C 15.568 27.155 14.663 30.856 14.614 34.588 C 14.495 43.626 17.867 52.408 24.909 61.373 C 20.245 68.241 18.120 76.990 16.058 85.475 C 14.257 92.887 12.556 99.890 9.349 105.114 C 8.416 106.474 7.397 107.740 6.411 108.965 C 3.556 112.512 0.604 116.179 -0.734 122.421 C -1.039 123.846 -1.181 125.267 -1.158 126.645 C -0.992 136.339 6.883 142.852 18.436 142.852 C 19.072 142.852 19.725 142.832 20.378 142.793 C 20.468 142.791 20.546 142.788 20.623 142.783 C 21.232 142.750 21.888 142.730 22.545 142.724 L 22.680 142.723 C 22.838 142.723 22.998 142.725 23.157 142.728 L 23.437 142.731 C 23.894 142.736 24.353 142.741 24.819 142.756 C 25.170 142.769 25.527 142.785 25.883 142.804 C 26.315 142.825 26.739 142.849 27.166 142.878 C 27.556 142.905 27.953 142.934 28.352 142.966 C 28.748 142.999 29.143 143.035 29.539 143.074 L 29.816 143.100 C 30.164 143.132 30.511 143.165 30.861 143.203 C 31.068 143.225 31.272 143.250 31.477 143.273 L 31.810 143.312 C 33.645 143.523 35.629 143.785 38.052 144.134 C 39.069 144.281 40.092 144.433 41.116 144.585 C 47.809 145.576 54.730 146.602 61.233 146.602 C 62.391 146.602 63.521 146.569 64.594 146.503 C 64.790 146.514 65.089 146.524 65.481 146.524 C 68.502 146.524 79.383 145.819 92.583 136.750 C 99.509 131.990 104.475 126.896 107.341 121.611 C 111.803 113.384 111.138 104.639 105.417 96.321 C 90.925 75.250 83.271 60.873 82.018 52.371 C 81.072 45.949 83.773 43.867 87.862 40.716 C 90.497 38.686 93.483 36.385 95.500 32.627 C 97.813 28.315 95.033 21.875 91.930 16.083 C 91.886 15.973 91.836 15.864 91.779 15.758 C 91.387 15.028 90.932 14.273 90.388 13.450 L 90.324 13.352 C 90.256 13.248 90.186 13.143 90.116 13.040 C 90.062 12.962 90.012 12.896 89.963 12.832 C 89.479 12.135 89.028 11.537 88.588 11.001 C 87.891 10.154 80.639 3.189 72.840 0.610 C 71.990 0.330 66.525 -0.988 63.469 -1.343 C 63.113 -1.384 62.571 -1.405 61.855 -1.405 L 61.855 -1.405 Z "/>
      </g>
      <path id="White" fill="#FFFFFF" d="M 64.596 143.498 C 64.596 143.498 76.007 144.501 90.884 134.278 C 99.969 128.035 114.632 115.015 102.946 98.022 C 60.606 36.458 85.342 45.210 92.856 31.208 C 94.775 27.632 90.695 20.110 89.098 17.153 C 89.120 17.167 89.135 17.177 89.135 17.177 C 88.746 16.453 88.323 15.768 87.884 15.103 C 87.803 14.980 87.723 14.856 87.640 14.735 C 87.605 14.684 87.565 14.639 87.530 14.589 C 75.676 9.891 57.520 11.492 50.036 29.347 C 43.631 44.621 74.231 69.624 55.106 79.292 C 47.737 83.017 32.368 94.322 32.368 106.076 C 32.368 117.830 39.368 131.322 38.702 139.322 C 38.645 139.998 38.569 140.598 38.483 141.166 C 47.306 142.443 56.454 144.025 64.596 143.498 Z "/>
    </g>
    <g id="Beak">
      <path id="ID0.37231157114729285" fill="#F7941E" d="M 89.842 64.605 C 83.418 64.604 75.406 60.092 71.208 54.109 C 68.685 50.513 67.911 46.829 69.029 43.737 C 71.954 35.640 81.277 26.227 88.914 26.227 C 89.452 26.227 89.979 26.275 90.481 26.371 C 96.268 27.366 99.359 29.205 102.086 30.829 C 103.713 31.798 105.250 32.713 107.284 33.431 C 109.610 34.253 111.600 34.596 113.356 34.899 C 116.811 35.494 119.795 36.008 120.668 40.208 C 121.179 42.655 120.666 45.260 119.260 47.354 C 118.055 49.149 115.566 51.482 110.555 52.405 C 109.334 52.630 107.920 52.744 106.355 52.744 C 101.024 52.744 94.344 51.404 89.376 49.855 C 93.053 55.798 100.176 57.470 100.522 57.548 C 100.728 57.594 100.930 57.686 101.099 57.813 C 101.731 58.286 101.887 59.168 101.457 59.830 C 99.869 62.276 96.804 63.804 92.345 64.371 C 91.549 64.528 90.707 64.607 89.842 64.607 C 89.844 64.605 89.843 64.605 89.842 64.605 Z "/>
      <path id="ID0.5737760849297047" d="M 88.914 27.727 C 89.354 27.727 89.785 27.765 90.201 27.844 C 99.105 29.375 101.035 32.813 106.785 34.844 C 113.904 37.359 118.187 35.636 119.201 40.511 C 119.939 44.047 118.320 49.448 110.285 50.928 C 109.105 51.145 107.776 51.242 106.356 51.242 C 99.752 51.242 91.173 49.141 86.535 47.261 C 89.617 56.761 100.197 59.008 100.201 59.011 C 98.910 60.999 96.251 62.368 92.105 62.887 C 91.376 63.034 90.619 63.104 89.842 63.104 C 80.155 63.104 67.570 52.180 70.439 44.247 C 73.341 36.215 82.343 27.727 88.914 27.727 M 88.914 24.727 C 80.550 24.727 70.772 34.495 67.618 43.228 C 66.329 46.792 67.168 50.963 69.981 54.972 C 74.507 61.423 82.861 66.105 89.842 66.105 C 90.787 66.105 91.709 66.020 92.585 65.851 C 97.475 65.219 100.883 63.468 102.716 60.645 C 103.576 59.321 103.263 57.557 101.999 56.610 C 101.660 56.357 101.265 56.175 100.852 56.083 C 100.620 56.030 97.044 55.193 93.836 52.621 C 97.947 53.576 102.451 54.243 106.356 54.243 C 108.012 54.243 109.517 54.120 110.829 53.879 C 116.352 52.861 119.141 50.223 120.507 48.189 C 122.137 45.762 122.732 42.740 122.138 39.898 C 121.058 34.702 117.102 34.020 113.612 33.419 C 111.916 33.127 109.992 32.795 107.785 32.016 C 105.891 31.347 104.484 30.510 102.854 29.540 C 100.019 27.852 96.805 25.939 90.733 24.892 C 90.147 24.782 89.535 24.727 88.914 24.727 L 88.914 24.727 Z "/>
    </g>
    <path id="Eye" d="M 70.439 23.604 C 71.485 23.604 72.433 24.149 73.119 25.030 C 73.805 25.910 74.230 27.126 74.230 28.468 C 74.230 29.810 73.805 31.026 73.119 31.906 C 72.433 32.787 71.485 33.332 70.439 33.332 C 69.393 33.332 68.445 32.787 67.759 31.906 C 67.073 31.026 66.648 29.810 66.648 28.468 C 66.648 27.126 67.073 25.910 67.759 25.030 C 68.445 24.149 69.393 23.604 70.439 23.604 Z "/>
    <path id="Wing" fill="#8A8FC6" stroke="#000000" stroke-width="3" stroke-linecap="round" stroke-linejoin="round" d="M 50.072 79.952 C 50.072 79.952 43.090 98.415 50.072 112.793 C 57.054 127.171 65.468 135.626 72.968 121.126 C 82.607 102.492 68.823 77.959 57.965 63.912 "/>
  </g>
</svg>
